X: 195
T: Saddle Up the Grey
B: canberra pickers and fiddlers
B: old time tunes update
B: tunes
M:2/4
L:1/8
Q: 1/4=100
K:G
V:1 
(D/|G/)B/d/e/ dB|d/=f/e/d/ B/G/G/(D/|G/)B/d/e/ dc/B/|A/c/B/A/ G>D|
G/B/d/e/ dB|d/=f/e/d/ B/G/G/D/|G/B/d/e/ dc/B/|A/c/B/A/ G2||
B/c/B/A/ B/c/B/A/|G/B/A/G/ E>(A|c)c/B/ c/d/c/B/|A/c/B/A/ G2|
B/c/B/A/ B/c/B/A/|G/B/A/G/ E>A|cc/B/ c/d/c/B/|A/c/B/A/ G2||
% abcbook-tune_id 67a7d9eceb290a969ab61715
% abcbook-tune_composer_id 
% abcbook-link-0 https://www.youtube.com/watch?v=RjK5EC1oitI
% abcbook-link-title-0 Saddle Up the Grey
% abcbook-boost 0
% abcbook-difficulty 0
% abcbook-tags old time tunes
% abcbook-tablature 
% abcbook-transpose 
% abcbook-tuning GDAD
% abcbook-lastupdated 1739253470161
% abcbook-src-url 
% abcbook-soundfonts 
% abcbook-repeats 1


